src/img/download-icon.svg

<svg width="512" height="512" viewBox="0 0 512 512" fill="none" xmlns="http://www.w3.org/2000/svg">
<path d="M382.56 233.376C379.968 227.648 374.272 224 368 224H304V16C304 7.168 296.832 0 288 0H224C215.168 0 208 7.168 208 16V224H144C137.728 224 132.032 227.68 129.44 233.376C126.816 239.104 127.84 245.792 131.968 250.528L243.968 378.528C247.008 382.016 251.392 384 256 384C260.608 384 264.992 381.984 268.032 378.528L380.032 250.528C384.192 245.824 385.152 239.104 382.56 233.376Z" fill="#4D4D4D"/>
<path d="M432 352V448H80V352H16V480C16 497.696 30.336 512 48 512H464C481.696 512 496 497.696 496 480V352H432Z" fill="#4D4D4D"/>
</svg>

<svg width="512" height="512" fill="none" xmlns="http://www.w3.org/2000/svg"><path d="M382.6 233.4A16 16 0 00368 224h-64V16a16 16 0 00-16-16h-64a16 16 0 00-16 16v208h-64a16 16 0 00-12 26.5l112 128a16 16 0 0024 0l112-128a16 16 0 002.6-17.1z" fill="#4D4D4D"/><path d="M432 352v96H80v-96H16v128a32 32 0 0032 32h416a32 32 0 0032-32V352h-64z" fill="#4D4D4D"/></svg>
